X: 115
T:Rose of Mooncoin, The
M:3/4
R:Waltz
L:1/8
K:G
B,C|"G"D4Bc|A2G2B,2|"D"C2F3E|"G"D4DE|"D"D2A,2B,2|C2A3B|"C"A2G2B,2|"G"D4B,C|
D4Bc|A2G2B,2|"D"C2F3E|"G"D4DE|"D"D4A,B,|C2D2E2|F2B3A|"G"G4z2||

